images/50616212.svg

<?xml version="1.0" encoding="UTF-8"?>
<svg xmlns="http://www.w3.org/2000/svg" xmlns:xlink="http://www.w3.org/1999/xlink" width="300pt" height="300pt" viewBox="0 0 300 300" version="1.1">
<defs>
<g>
<symbol overflow="visible" id="glyph0-0">
<path style="stroke:none;" d="M 0.453125 1.59375 L 0.453125 -6.34375 L 4.953125 -6.34375 L 4.953125 1.59375 Z M 0.953125 1.09375 L 4.453125 1.09375 L 4.453125 -5.84375 L 0.953125 -5.84375 Z M 0.953125 1.09375 "/>
</symbol>
<symbol overflow="visible" id="glyph0-1">
<path style="stroke:none;" d="M 3.546875 -5.953125 C 2.898438 -5.953125 2.382812 -5.710938 2 -5.234375 C 1.625 -4.753906 1.4375 -4.101562 1.4375 -3.28125 C 1.4375 -2.445312 1.625 -1.789062 2 -1.3125 C 2.382812 -0.832031 2.898438 -0.59375 3.546875 -0.59375 C 4.191406 -0.59375 4.703125 -0.832031 5.078125 -1.3125 C 5.453125 -1.789062 5.640625 -2.445312 5.640625 -3.28125 C 5.640625 -4.101562 5.453125 -4.753906 5.078125 -5.234375 C 4.703125 -5.710938 4.191406 -5.953125 3.546875 -5.953125 Z M 3.546875 -6.6875 C 4.460938 -6.6875 5.195312 -6.375 5.75 -5.75 C 6.300781 -5.132812 6.578125 -4.3125 6.578125 -3.28125 C 6.578125 -2.238281 6.300781 -1.410156 5.75 -0.796875 C 5.195312 -0.179688 4.460938 0.125 3.546875 0.125 C 2.617188 0.125 1.878906 -0.179688 1.328125 -0.796875 C 0.773438 -1.410156 0.5 -2.238281 0.5 -3.28125 C 0.5 -4.3125 0.773438 -5.132812 1.328125 -5.75 C 1.878906 -6.375 2.617188 -6.6875 3.546875 -6.6875 Z M 3.546875 -6.6875 "/>
</symbol>
<symbol overflow="visible" id="glyph0-2">
<path style="stroke:none;" d="M 0.890625 -6.5625 L 2.078125 -6.5625 L 4.984375 -1.078125 L 4.984375 -6.5625 L 5.84375 -6.5625 L 5.84375 0 L 4.65625 0 L 1.75 -5.484375 L 1.75 0 L 0.890625 0 Z M 0.890625 -6.5625 "/>
</symbol>
<symbol overflow="visible" id="glyph0-3">
<path style="stroke:none;" d="M 0.890625 -6.5625 L 1.765625 -6.5625 L 1.765625 -3.875 L 5 -3.875 L 5 -6.5625 L 5.890625 -6.5625 L 5.890625 0 L 5 0 L 5 -3.125 L 1.765625 -3.125 L 1.765625 0 L 0.890625 0 Z M 0.890625 -6.5625 "/>
</symbol>
</g>
</defs>
<g id="surface15153">
<rect x="0" y="0" width="300" height="300" style="fill:rgb(100%,100%,100%);fill-opacity:1;stroke:none;"/>
<path style="fill:none;stroke-width:1.2;stroke-linecap:butt;stroke-linejoin:miter;stroke:rgb(100%,0%,0%);stroke-opacity:1;stroke-miterlimit:10;" d="M 35.25 124.222656 L 42.039062 115.917969 "/>
<path style="fill:none;stroke-width:1.2;stroke-linecap:butt;stroke-linejoin:miter;stroke:rgb(0%,0%,0%);stroke-opacity:1;stroke-miterlimit:10;" d="M 42.039062 115.917969 L 48.824219 107.613281 "/>
<path style="fill:none;stroke-width:1.2;stroke-linecap:butt;stroke-linejoin:miter;stroke:rgb(0%,0%,0%);stroke-opacity:1;stroke-miterlimit:10;" d="M 42.847656 144.285156 L 39.050781 134.253906 "/>
<path style="fill:none;stroke-width:1.2;stroke-linecap:butt;stroke-linejoin:miter;stroke:rgb(100%,0%,0%);stroke-opacity:1;stroke-miterlimit:10;" d="M 39.050781 134.253906 L 35.25 124.222656 "/>
<path style=" stroke:none;fill-rule:nonzero;fill:rgb(100%,100%,100%);fill-opacity:1;" d="M 31.25 118.722656 L 39.25 118.722656 L 39.25 129.722656 L 31.25 129.722656 Z M 31.25 118.722656 "/>
<g style="fill:rgb(100%,0%,0%);fill-opacity:1;">
  <use xlink:href="#glyph0-1" x="31.25" y="127.385742"/>
</g>
<path style="fill:none;stroke-width:1.2;stroke-linecap:butt;stroke-linejoin:miter;stroke:rgb(0%,0%,0%);stroke-opacity:1;stroke-miterlimit:10;" d="M 48.824219 107.613281 L 70 111.0625 "/>
<path style="fill:none;stroke-width:1.2;stroke-linecap:butt;stroke-linejoin:miter;stroke:rgb(0%,0%,0%);stroke-opacity:1;stroke-miterlimit:10;" d="M 70 111.0625 L 77.597656 131.125 "/>
<path style="fill:none;stroke-width:1.2;stroke-linecap:butt;stroke-linejoin:miter;stroke:rgb(0%,0%,0%);stroke-opacity:1;stroke-miterlimit:10;" d="M 77.597656 131.125 L 88.183594 132.851562 "/>
<path style="fill:none;stroke-width:1.2;stroke-linecap:butt;stroke-linejoin:miter;stroke:rgb(0%,0%,100%);stroke-opacity:1;stroke-miterlimit:10;" d="M 88.183594 132.851562 L 98.769531 134.578125 "/>
<path style="fill:none;stroke-width:1.2;stroke-linecap:butt;stroke-linejoin:miter;stroke:rgb(0%,0%,0%);stroke-opacity:1;stroke-miterlimit:10;" d="M 77.597656 131.125 L 64.023438 147.738281 "/>
<path style="fill:none;stroke-width:1.2;stroke-linecap:butt;stroke-linejoin:miter;stroke:rgb(0%,0%,100%);stroke-opacity:1;stroke-miterlimit:10;" d="M 98.769531 134.578125 L 114.007812 119.476562 "/>
<path style="fill:none;stroke-width:1.2;stroke-linecap:butt;stroke-linejoin:miter;stroke:rgb(0%,0%,0%);stroke-opacity:1;stroke-miterlimit:10;" d="M 108.425781 153.734375 L 103.597656 144.15625 "/>
<path style="fill:none;stroke-width:1.2;stroke-linecap:butt;stroke-linejoin:miter;stroke:rgb(0%,0%,100%);stroke-opacity:1;stroke-miterlimit:10;" d="M 103.597656 144.15625 L 98.769531 134.578125 "/>
<path style=" stroke:none;fill-rule:nonzero;fill:rgb(100%,100%,100%);fill-opacity:1;" d="M 95.769531 129.078125 L 102.769531 129.078125 L 102.769531 140.078125 L 95.769531 140.078125 Z M 95.769531 129.078125 "/>
<g style="fill:rgb(0%,0%,100%);fill-opacity:1;">
  <use xlink:href="#glyph0-2" x="95.769531" y="137.741211"/>
</g>
<path style="fill:none;stroke-width:1.2;stroke-linecap:butt;stroke-linejoin:miter;stroke:rgb(0%,0%,100%);stroke-opacity:1;stroke-miterlimit:10;" d="M 114.007812 119.476562 L 123.542969 124.386719 "/>
<path style="fill:none;stroke-width:1.2;stroke-linecap:butt;stroke-linejoin:miter;stroke:rgb(0%,0%,0%);stroke-opacity:1;stroke-miterlimit:10;" d="M 123.542969 124.386719 L 133.078125 129.300781 "/>
<path style="fill:none;stroke-width:1.2;stroke-linecap:butt;stroke-linejoin:miter;stroke:rgb(0%,0%,100%);stroke-opacity:1;stroke-miterlimit:10;" d="M 113.605469 124.945312 L 121.230469 128.875 "/>
<path style="fill:none;stroke-width:1.2;stroke-linecap:butt;stroke-linejoin:miter;stroke:rgb(0%,0%,0%);stroke-opacity:1;stroke-miterlimit:10;" d="M 121.230469 128.875 L 128.859375 132.804688 "/>
<path style=" stroke:none;fill-rule:nonzero;fill:rgb(100%,100%,100%);fill-opacity:1;" d="M 111.007812 113.976562 L 118.007812 113.976562 L 118.007812 124.976562 L 111.007812 124.976562 Z M 111.007812 113.976562 "/>
<g style="fill:rgb(0%,0%,100%);fill-opacity:1;">
  <use xlink:href="#glyph0-2" x="111.007812" y="122.639648"/>
</g>
<path style="fill:none;stroke-width:1.2;stroke-linecap:butt;stroke-linejoin:miter;stroke:rgb(0%,0%,0%);stroke-opacity:1;stroke-miterlimit:10;" d="M 133.078125 129.300781 L 131.355469 139.886719 "/>
<path style="fill:none;stroke-width:1.2;stroke-linecap:butt;stroke-linejoin:miter;stroke:rgb(0%,0%,100%);stroke-opacity:1;stroke-miterlimit:10;" d="M 131.355469 139.886719 L 129.628906 150.472656 "/>
<path style="fill:none;stroke-width:1.2;stroke-linecap:butt;stroke-linejoin:miter;stroke:rgb(0%,0%,0%);stroke-opacity:1;stroke-miterlimit:10;" d="M 133.078125 129.300781 L 152.238281 119.648438 "/>
<path style="fill:none;stroke-width:1.2;stroke-linecap:butt;stroke-linejoin:miter;stroke:rgb(0%,0%,100%);stroke-opacity:1;stroke-miterlimit:10;" d="M 129.628906 150.472656 L 137.179688 158.09375 "/>
<path style="fill:none;stroke-width:1.2;stroke-linecap:butt;stroke-linejoin:miter;stroke:rgb(0%,0%,0%);stroke-opacity:1;stroke-miterlimit:10;" d="M 137.179688 158.09375 L 144.730469 165.710938 "/>
<path style="fill:none;stroke-width:1.2;stroke-linecap:butt;stroke-linejoin:miter;stroke:rgb(0%,0%,100%);stroke-opacity:1;stroke-miterlimit:10;" d="M 129.628906 150.472656 L 119.027344 152.105469 "/>
<path style="fill:none;stroke-width:1.2;stroke-linecap:butt;stroke-linejoin:miter;stroke:rgb(0%,0%,0%);stroke-opacity:1;stroke-miterlimit:10;" d="M 119.027344 152.105469 L 108.425781 153.734375 "/>
<path style=" stroke:none;fill-rule:nonzero;fill:rgb(100%,100%,100%);fill-opacity:1;" d="M 126.628906 144.972656 L 133.628906 144.972656 L 133.628906 155.972656 L 126.628906 155.972656 Z M 126.628906 144.972656 "/>
<g style="fill:rgb(0%,0%,100%);fill-opacity:1;">
  <use xlink:href="#glyph0-2" x="126.628906" y="153.635742"/>
</g>
<path style="fill:none;stroke-width:1.2;stroke-linecap:butt;stroke-linejoin:miter;stroke:rgb(0%,0%,0%);stroke-opacity:1;stroke-miterlimit:10;" d="M 144.730469 165.710938 L 165.476562 160.253906 "/>
<path style="fill:none;stroke-width:1.2;stroke-linecap:butt;stroke-linejoin:miter;stroke:rgb(0%,0%,0%);stroke-opacity:1;stroke-miterlimit:10;" d="M 148.089844 170.046875 L 164.6875 165.679688 "/>
<path style="fill:none;stroke-width:1.2;stroke-linecap:butt;stroke-linejoin:miter;stroke:rgb(0%,0%,0%);stroke-opacity:1;stroke-miterlimit:10;" d="M 139.085938 186.410156 L 144.730469 165.710938 "/>
<path style="fill:none;stroke-width:1.2;stroke-linecap:butt;stroke-linejoin:miter;stroke:rgb(0%,0%,0%);stroke-opacity:1;stroke-miterlimit:10;" d="M 165.476562 160.253906 L 180.578125 175.488281 "/>
<path style="fill:none;stroke-width:1.2;stroke-linecap:butt;stroke-linejoin:miter;stroke:rgb(0%,0%,0%);stroke-opacity:1;stroke-miterlimit:10;" d="M 180.578125 175.488281 L 174.933594 196.1875 "/>
<path style="fill:none;stroke-width:1.2;stroke-linecap:butt;stroke-linejoin:miter;stroke:rgb(0%,0%,0%);stroke-opacity:1;stroke-miterlimit:10;" d="M 184.882812 178.886719 L 180.367188 195.445312 "/>
<path style="fill:none;stroke-width:1.2;stroke-linecap:butt;stroke-linejoin:miter;stroke:rgb(0%,0%,0%);stroke-opacity:1;stroke-miterlimit:10;" d="M 201.324219 170.03125 L 180.578125 175.488281 "/>
<path style="fill:none;stroke-width:1.2;stroke-linecap:butt;stroke-linejoin:miter;stroke:rgb(0%,0%,0%);stroke-opacity:1;stroke-miterlimit:10;" d="M 174.933594 196.1875 L 154.183594 201.644531 "/>
<path style="fill:none;stroke-width:1.2;stroke-linecap:butt;stroke-linejoin:miter;stroke:rgb(0%,0%,0%);stroke-opacity:1;stroke-miterlimit:10;" d="M 174.933594 196.1875 L 190.035156 211.425781 "/>
<path style="fill:none;stroke-width:1.2;stroke-linecap:butt;stroke-linejoin:miter;stroke:rgb(0%,0%,0%);stroke-opacity:1;stroke-miterlimit:10;" d="M 154.183594 201.644531 L 139.085938 186.410156 "/>
<path style="fill:none;stroke-width:1.2;stroke-linecap:butt;stroke-linejoin:miter;stroke:rgb(0%,0%,0%);stroke-opacity:1;stroke-miterlimit:10;" d="M 156.261719 196.570312 L 144.179688 184.378906 "/>
<path style="fill:none;stroke-width:1.2;stroke-linecap:butt;stroke-linejoin:miter;stroke:rgb(0%,0%,0%);stroke-opacity:1;stroke-miterlimit:10;" d="M 190.035156 211.425781 L 210.78125 205.964844 "/>
<path style="fill:none;stroke-width:1.2;stroke-linecap:butt;stroke-linejoin:miter;stroke:rgb(0%,0%,0%);stroke-opacity:1;stroke-miterlimit:10;" d="M 190.824219 205.996094 L 207.421875 201.628906 "/>
<path style="fill:none;stroke-width:1.2;stroke-linecap:butt;stroke-linejoin:miter;stroke:rgb(0%,0%,0%);stroke-opacity:1;stroke-miterlimit:10;" d="M 210.78125 205.964844 L 216.425781 185.269531 "/>
<path style="fill:none;stroke-width:1.2;stroke-linecap:butt;stroke-linejoin:miter;stroke:rgb(0%,0%,0%);stroke-opacity:1;stroke-miterlimit:10;" d="M 216.425781 185.269531 L 201.324219 170.03125 "/>
<path style="fill:none;stroke-width:1.2;stroke-linecap:butt;stroke-linejoin:miter;stroke:rgb(0%,0%,0%);stroke-opacity:1;stroke-miterlimit:10;" d="M 211.332031 187.296875 L 199.25 175.109375 "/>
<path style="fill:none;stroke-width:1.2;stroke-linecap:butt;stroke-linejoin:miter;stroke:rgb(0%,0%,0%);stroke-opacity:1;stroke-miterlimit:10;" d="M 106.179688 152.578125 L 101.269531 162.113281 "/>
<path style="fill:none;stroke-width:1.2;stroke-linecap:butt;stroke-linejoin:miter;stroke:rgb(100%,0%,0%);stroke-opacity:1;stroke-miterlimit:10;" d="M 101.269531 162.113281 L 96.355469 171.648438 "/>
<path style="fill:none;stroke-width:1.2;stroke-linecap:butt;stroke-linejoin:miter;stroke:rgb(0%,0%,0%);stroke-opacity:1;stroke-miterlimit:10;" d="M 110.667969 154.890625 L 105.753906 164.425781 "/>
<path style="fill:none;stroke-width:1.2;stroke-linecap:butt;stroke-linejoin:miter;stroke:rgb(100%,0%,0%);stroke-opacity:1;stroke-miterlimit:10;" d="M 105.753906 164.425781 L 100.84375 173.960938 "/>
<path style=" stroke:none;fill-rule:nonzero;fill:rgb(100%,100%,100%);fill-opacity:1;" d="M 90.597656 167.304688 L 98.597656 167.304688 L 98.597656 178.304688 L 90.597656 178.304688 Z M 90.597656 167.304688 "/>
<g style="fill:rgb(100%,0%,0%);fill-opacity:1;">
  <use xlink:href="#glyph0-1" x="90.597656" y="175.967773"/>
</g>
<path style="fill:none;stroke-width:1.2;stroke-linecap:butt;stroke-linejoin:miter;stroke:rgb(0%,0%,0%);stroke-opacity:1;stroke-miterlimit:10;" d="M 152.238281 119.648438 L 170.175781 131.410156 "/>
<path style="fill:none;stroke-width:1.2;stroke-linecap:butt;stroke-linejoin:miter;stroke:rgb(0%,0%,0%);stroke-opacity:1;stroke-miterlimit:10;" d="M 156.800781 116.601562 L 171.152344 126.015625 "/>
<path style="fill:none;stroke-width:1.2;stroke-linecap:butt;stroke-linejoin:miter;stroke:rgb(0%,0%,0%);stroke-opacity:1;stroke-miterlimit:10;" d="M 153.457031 98.230469 L 152.238281 119.648438 "/>
<path style="fill:none;stroke-width:1.2;stroke-linecap:butt;stroke-linejoin:miter;stroke:rgb(0%,0%,0%);stroke-opacity:1;stroke-miterlimit:10;" d="M 170.175781 131.410156 L 189.335938 121.757812 "/>
<path style="fill:none;stroke-width:1.2;stroke-linecap:butt;stroke-linejoin:miter;stroke:rgb(0%,0%,0%);stroke-opacity:1;stroke-miterlimit:10;" d="M 189.335938 121.757812 L 189.945312 111.050781 "/>
<path style="fill:none;stroke-width:1.2;stroke-linecap:butt;stroke-linejoin:miter;stroke:rgb(0%,0%,100%);stroke-opacity:1;stroke-miterlimit:10;" d="M 189.945312 111.050781 L 190.554688 100.339844 "/>
<path style="fill:none;stroke-width:1.2;stroke-linecap:butt;stroke-linejoin:miter;stroke:rgb(0%,0%,0%);stroke-opacity:1;stroke-miterlimit:10;" d="M 184.417969 119.328125 L 184.90625 110.761719 "/>
<path style="fill:none;stroke-width:1.2;stroke-linecap:butt;stroke-linejoin:miter;stroke:rgb(0%,0%,100%);stroke-opacity:1;stroke-miterlimit:10;" d="M 184.90625 110.761719 L 185.394531 102.195312 "/>
<path style="fill:none;stroke-width:1.2;stroke-linecap:butt;stroke-linejoin:miter;stroke:rgb(0%,0%,0%);stroke-opacity:1;stroke-miterlimit:10;" d="M 189.335938 121.757812 L 198.304688 127.640625 "/>
<path style="fill:none;stroke-width:1.2;stroke-linecap:butt;stroke-linejoin:miter;stroke:rgb(0%,0%,100%);stroke-opacity:1;stroke-miterlimit:10;" d="M 198.304688 127.640625 L 207.273438 133.523438 "/>
<path style="fill:none;stroke-width:1.2;stroke-linecap:butt;stroke-linejoin:miter;stroke:rgb(0%,0%,100%);stroke-opacity:1;stroke-miterlimit:10;" d="M 190.554688 100.339844 L 181.585938 94.457031 "/>
<path style="fill:none;stroke-width:1.2;stroke-linecap:butt;stroke-linejoin:miter;stroke:rgb(0%,0%,0%);stroke-opacity:1;stroke-miterlimit:10;" d="M 181.585938 94.457031 L 172.613281 88.574219 "/>
<path style=" stroke:none;fill-rule:nonzero;fill:rgb(100%,100%,100%);fill-opacity:1;" d="M 187.554688 94.839844 L 194.554688 94.839844 L 194.554688 105.839844 L 187.554688 105.839844 Z M 187.554688 94.839844 "/>
<g style="fill:rgb(0%,0%,100%);fill-opacity:1;">
  <use xlink:href="#glyph0-2" x="187.554688" y="103.50293"/>
</g>
<path style="fill:none;stroke-width:1.2;stroke-linecap:butt;stroke-linejoin:miter;stroke:rgb(0%,0%,0%);stroke-opacity:1;stroke-miterlimit:10;" d="M 172.613281 88.574219 L 153.457031 98.230469 "/>
<path style="fill:none;stroke-width:1.2;stroke-linecap:butt;stroke-linejoin:miter;stroke:rgb(0%,0%,0%);stroke-opacity:1;stroke-miterlimit:10;" d="M 172.96875 94.046875 L 157.644531 101.769531 "/>
<path style="fill:none;stroke-width:1.2;stroke-linecap:butt;stroke-linejoin:miter;stroke:rgb(0%,0%,100%);stroke-opacity:1;stroke-miterlimit:10;" d="M 207.273438 133.523438 L 216.855469 128.695312 "/>
<path style="fill:none;stroke-width:1.2;stroke-linecap:butt;stroke-linejoin:miter;stroke:rgb(0%,0%,0%);stroke-opacity:1;stroke-miterlimit:10;" d="M 216.855469 128.695312 L 226.433594 123.871094 "/>
<path style=" stroke:none;fill-rule:nonzero;fill:rgb(100%,100%,100%);fill-opacity:1;" d="M 200.273438 128.023438 L 214.273438 128.023438 L 214.273438 139.023438 L 200.273438 139.023438 Z M 200.273438 128.023438 "/>
<g style="fill:rgb(0%,0%,100%);fill-opacity:1;">
  <use xlink:href="#glyph0-2" x="200.273438" y="136.686523"/>
  <use xlink:href="#glyph0-3" x="207.250977" y="136.686523"/>
</g>
<path style="fill:none;stroke-width:1.2;stroke-linecap:butt;stroke-linejoin:miter;stroke:rgb(0%,0%,0%);stroke-opacity:1;stroke-miterlimit:10;" d="M 226.433594 123.871094 L 244.371094 135.632812 "/>
<path style="fill:none;stroke-width:1.2;stroke-linecap:butt;stroke-linejoin:miter;stroke:rgb(0%,0%,0%);stroke-opacity:1;stroke-miterlimit:10;" d="M 227.652344 102.453125 L 226.433594 123.871094 "/>
<path style="fill:none;stroke-width:1.2;stroke-linecap:butt;stroke-linejoin:miter;stroke:rgb(0%,0%,0%);stroke-opacity:1;stroke-miterlimit:10;" d="M 244.371094 135.632812 L 263.53125 125.980469 "/>
<path style="fill:none;stroke-width:1.2;stroke-linecap:butt;stroke-linejoin:miter;stroke:rgb(0%,0%,0%);stroke-opacity:1;stroke-miterlimit:10;" d="M 263.53125 125.980469 L 264.75 104.5625 "/>
<path style="fill:none;stroke-width:1.2;stroke-linecap:butt;stroke-linejoin:miter;stroke:rgb(0%,0%,0%);stroke-opacity:1;stroke-miterlimit:10;" d="M 264.75 104.5625 L 246.8125 92.796875 "/>
<path style="fill:none;stroke-width:1.2;stroke-linecap:butt;stroke-linejoin:miter;stroke:rgb(0%,0%,0%);stroke-opacity:1;stroke-miterlimit:10;" d="M 246.8125 92.796875 L 227.652344 102.453125 "/>
<path style="fill:none;stroke-width:1.2;stroke-linecap:butt;stroke-linejoin:miter;stroke:rgb(0%,0%,0%);stroke-opacity:1;stroke-miterlimit:10;" d="M 64.023438 147.738281 L 42.847656 144.285156 "/>
</g>
</svg>

<svg xmlns="http://www.w3.org/2000/svg" xmlns:xlink="http://www.w3.org/1999/xlink" width="300pt" height="300pt" viewBox="0 0 300 300"><defs><symbol overflow="visible"><path d="M.453 1.594v-7.938h4.5v7.938zm.5-.5h3.5v-6.938h-3.5zm0 0"/></symbol><symbol overflow="visible" id="a"><path d="M3.547-5.953c-.65 0-1.164.242-1.547.72-.375.48-.563 1.13-.563 1.952 0 .835.188 1.49.563 1.967.383.48.898.72 1.547.72.644 0 1.156-.24 1.53-.72.376-.476.564-1.132.564-1.968 0-.822-.187-1.474-.562-1.954-.375-.477-.887-.72-1.53-.72zm0-.734c.914 0 1.648.312 2.203.937.55.617.828 1.438.828 2.47 0 1.042-.277 1.87-.828 2.483-.555.617-1.29.922-2.203.922-.93 0-1.668-.305-2.22-.922C.774-1.41.5-2.237.5-3.28c0-1.033.273-1.853.828-2.47.55-.625 1.29-.938 2.22-.938zm0 0"/></symbol><symbol overflow="visible" id="b"><path d="M.89-6.563H2.08l2.906 5.485v-5.484h.86V0H4.656L1.75-5.484V0H.89zm0 0"/></symbol><symbol overflow="visible" id="c"><path d="M.89-6.563h.876v2.688H5v-2.688h.89V0H5v-3.125H1.766V0H.89zm0 0"/></symbol></defs><g><path fill="#fff" d="M0 0h300v300H0z"/><path d="M35.25 124.223l6.79-8.305" stroke-width="1.2" stroke="#f00" stroke-miterlimit="10" fill="none"/><path d="M42.04 115.918l6.784-8.305M42.848 144.285l-3.797-10.03" stroke-width="1.2" stroke="#000" stroke-miterlimit="10" fill="none"/><path d="M39.05 134.254l-3.8-10.03" stroke-width="1.2" stroke="#f00" stroke-miterlimit="10" fill="none"/><path d="M31.25 118.723h8v11h-8zm0 0" fill="#fff"/><use xlink:href="#a" x="31.25" y="127.386" fill="#f00"/><path d="M48.824 107.613L70 111.063M70 111.063l7.598 20.062M77.598 131.125l10.586 1.727" stroke-width="1.2" stroke="#000" stroke-miterlimit="10" fill="none"/><path d="M88.184 132.852l10.586 1.726" stroke-width="1.2" stroke="#00f" stroke-miterlimit="10" fill="none"/><path d="M77.598 131.125l-13.575 16.613" stroke-width="1.2" stroke="#000" stroke-miterlimit="10" fill="none"/><path d="M98.77 134.578l15.238-15.1" stroke-width="1.2" stroke="#00f" stroke-miterlimit="10" fill="none"/><path d="M108.426 153.734l-4.828-9.578" stroke-width="1.2" stroke="#000" stroke-miterlimit="10" fill="none"/><path d="M103.598 144.156l-4.828-9.578" stroke-width="1.2" stroke="#00f" stroke-miterlimit="10" fill="none"/><path d="M95.77 129.078h7v11h-7zm0 0" fill="#fff"/><use xlink:href="#b" x="95.77" y="137.741" fill="#00f"/><path d="M114.008 119.477l9.535 4.91" stroke-width="1.2" stroke="#00f" stroke-miterlimit="10" fill="none"/><path d="M123.543 124.387l9.535 4.914" stroke-width="1.2" stroke="#000" stroke-miterlimit="10" fill="none"/><path d="M113.605 124.945l7.625 3.93" stroke-width="1.2" stroke="#00f" stroke-miterlimit="10" fill="none"/><path d="M121.23 128.875l7.63 3.93" stroke-width="1.2" stroke="#000" stroke-miterlimit="10" fill="none"/><path d="M111.008 113.977h7v11h-7zm0 0" fill="#fff"/><use xlink:href="#b" x="111.008" y="122.64" fill="#00f"/><path d="M133.078 129.3l-1.723 10.587" stroke-width="1.2" stroke="#000" stroke-miterlimit="10" fill="none"/><path d="M131.355 139.887l-1.726 10.586" stroke-width="1.2" stroke="#00f" stroke-miterlimit="10" fill="none"/><path d="M133.078 129.3l19.16-9.652" stroke-width="1.2" stroke="#000" stroke-miterlimit="10" fill="none"/><path d="M129.63 150.473l7.55 7.62" stroke-width="1.2" stroke="#00f" stroke-miterlimit="10" fill="none"/><path d="M137.18 158.094l7.55 7.617" stroke-width="1.2" stroke="#000" stroke-miterlimit="10" fill="none"/><path d="M129.63 150.473l-10.603 1.632" stroke-width="1.2" stroke="#00f" stroke-miterlimit="10" fill="none"/><path d="M119.027 152.105l-10.6 1.63" stroke-width="1.2" stroke="#000" stroke-miterlimit="10" fill="none"/><path d="M126.63 144.973h7v11h-7zm0 0" fill="#fff"/><use xlink:href="#b" x="126.629" y="153.636" fill="#00f"/><path d="M144.73 165.71l20.747-5.456M148.09 170.047l16.597-4.367M139.086 186.41l5.644-20.7M165.477 160.254l15.1 15.234M180.578 175.488l-5.644 20.7M184.883 178.887l-4.516 16.558M201.324 170.03l-20.746 5.458M174.934 196.188l-20.75 5.457M174.934 196.188l15.1 15.238M154.184 201.645l-15.098-15.235M156.262 196.57l-12.082-12.19M190.035 211.426l20.746-5.46M190.824 205.996l16.598-4.367M210.78 205.965l5.646-20.695M216.426 185.27l-15.102-15.24M211.332 187.297L199.25 175.11M106.18 152.578l-4.91 9.535" stroke-width="1.2" stroke="#000" stroke-miterlimit="10" fill="none"/><path d="M101.27 162.113l-4.915 9.535" stroke-width="1.2" stroke="#f00" stroke-miterlimit="10" fill="none"/><path d="M110.668 154.89l-4.914 9.536" stroke-width="1.2" stroke="#000" stroke-miterlimit="10" fill="none"/><path d="M105.754 164.426l-4.91 9.535" stroke-width="1.2" stroke="#f00" stroke-miterlimit="10" fill="none"/><path d="M90.598 167.305h8v11h-8zm0 0" fill="#fff"/><use xlink:href="#a" x="90.598" y="175.968" fill="#f00"/><path d="M152.238 119.648l17.938 11.762M156.8 116.602l14.352 9.414M153.457 98.23l-1.22 21.418M170.176 131.41l19.16-9.652M189.336 121.758l.61-10.707" stroke-width="1.2" stroke="#000" stroke-miterlimit="10" fill="none"/><path d="M189.945 111.05l.61-10.71" stroke-width="1.2" stroke="#00f" stroke-miterlimit="10" fill="none"/><path d="M184.418 119.328l.488-8.566" stroke-width="1.2" stroke="#000" stroke-miterlimit="10" fill="none"/><path d="M184.906 110.762l.49-8.567" stroke-width="1.2" stroke="#00f" stroke-miterlimit="10" fill="none"/><path d="M189.336 121.758l8.97 5.883" stroke-width="1.2" stroke="#000" stroke-miterlimit="10" fill="none"/><path d="M198.305 127.64l8.968 5.883M190.555 100.34l-8.97-5.883" stroke-width="1.2" stroke="#00f" stroke-miterlimit="10" fill="none"/><path d="M181.586 94.457l-8.973-5.883" stroke-width="1.2" stroke="#000" stroke-miterlimit="10" fill="none"/><path d="M187.555 94.84h7v11h-7zm0 0" fill="#fff"/><use xlink:href="#b" x="187.555" y="103.503" fill="#00f"/><path d="M172.613 88.574l-19.156 9.656M172.97 94.047l-15.325 7.723" stroke-width="1.2" stroke="#000" stroke-miterlimit="10" fill="none"/><path d="M207.273 133.523l9.582-4.828" stroke-width="1.2" stroke="#00f" stroke-miterlimit="10" fill="none"/><path d="M216.855 128.695l9.58-4.824" stroke-width="1.2" stroke="#000" stroke-miterlimit="10" fill="none"/><path d="M200.273 128.023h14v11h-14zm0 0" fill="#fff"/><g fill="#00f"><use xlink:href="#b" x="200.273" y="136.687"/><use xlink:href="#c" x="207.251" y="136.687"/></g><path d="M226.434 123.87l17.937 11.763M227.652 102.453l-1.218 21.418M244.37 135.633l19.16-9.653M263.53 125.98l1.22-21.418M264.75 104.563l-17.938-11.766M246.813 92.797l-19.16 9.656M64.023 147.738l-21.175-3.453" stroke-width="1.2" stroke="#000" stroke-miterlimit="10" fill="none"/></g></svg>
